build/images/img/share.svg

<svg xmlns="http://www.w3.org/2000/svg" width="20" height="21"><path fill-rule="evenodd" d="M13.792 14.924c-.19.187-.354.392-.496.609l-6.283-3.734c.166-.408.26-.85.26-1.314 0-.465-.094-.908-.26-1.315l6.285-3.705a3.651 3.651 0 003.066 1.654c2.005 0 3.636-1.597 3.636-3.56s-1.631-3.56-3.636-3.56-3.637 1.597-3.637 3.56c0 .447.089.874.243 1.268l-6.293 3.71a3.655 3.655 0 00-3.041-1.612C1.631 6.925 0 8.522 0 10.485c0 1.962 1.631 3.559 3.636 3.559 1.271 0 2.39-.642 3.04-1.612l6.292 3.739a3.493 3.493 0 00.824 3.787A3.666 3.666 0 0016.363 21c.932 0 1.863-.348 2.571-1.042a3.5 3.5 0 000-5.034c-1.417-1.388-3.724-1.388-5.142 0zM16.364.711c1.604 0 2.909 1.278 2.909 2.848 0 1.57-1.305 2.847-2.909 2.847-1.604 0-2.909-1.277-2.909-2.847S14.759.711 16.364.711zM3.637 13.332c-1.604 0-2.909-1.277-2.909-2.847 0-1.571 1.305-2.848 2.909-2.848 1.604 0 2.909 1.277 2.909 2.848 0 1.57-1.305 2.847-2.909 2.847zm14.783 6.123a2.956 2.956 0 01-4.113 0 2.799 2.799 0 01-.852-2.013c0-.761.302-1.477.852-2.014a2.933 2.933 0 012.057-.833c.745 0 1.489.278 2.057.833a2.8 2.8 0 01.852 2.014 2.8 2.8 0 01-.853 2.013z"/></svg>

<svg 
 xmlns="http://www.w3.org/2000/svg"
 xmlns:xlink="http://www.w3.org/1999/xlink"
 width="20px" height="21px">
<path fill-rule="evenodd"  fill="rgb(0, 0, 0)"
 d="M13.792,14.924 C13.602,15.111 13.438,15.316 13.296,15.533 L7.013,11.799 C7.179,11.391 7.273,10.949 7.273,10.485 C7.273,10.020 7.179,9.577 7.013,9.170 L13.298,5.465 C13.943,6.457 15.075,7.119 16.364,7.119 C18.369,7.119 20.000,5.522 20.000,3.559 C20.000,1.596 18.369,-0.001 16.364,-0.001 C14.359,-0.001 12.727,1.596 12.727,3.559 C12.727,4.006 12.816,4.433 12.970,4.827 L6.677,8.537 C6.026,7.567 4.907,6.925 3.636,6.925 C1.631,6.925 -0.000,8.522 -0.000,10.485 C-0.000,12.447 1.631,14.044 3.636,14.044 C4.907,14.044 6.026,13.402 6.676,12.432 L12.968,16.171 C12.812,16.571 12.727,17.000 12.727,17.442 C12.727,18.393 13.105,19.286 13.792,19.958 C14.501,20.652 15.432,21.000 16.363,21.000 C17.295,21.000 18.226,20.652 18.934,19.958 C19.621,19.286 20.000,18.393 20.000,17.442 C20.000,16.491 19.621,15.596 18.934,14.924 C17.517,13.536 15.210,13.536 13.792,14.924 ZM16.364,0.711 C17.968,0.711 19.273,1.989 19.273,3.559 C19.273,5.129 17.968,6.406 16.364,6.406 C14.760,6.406 13.455,5.129 13.455,3.559 C13.455,1.989 14.759,0.711 16.364,0.711 ZM3.637,13.332 C2.033,13.332 0.728,12.055 0.728,10.485 C0.728,8.914 2.033,7.637 3.637,7.637 C5.241,7.637 6.546,8.914 6.546,10.485 C6.546,12.055 5.241,13.332 3.637,13.332 ZM18.420,19.455 C17.286,20.565 15.441,20.565 14.307,19.455 C13.757,18.917 13.455,18.201 13.455,17.442 C13.455,16.681 13.757,15.965 14.307,15.428 C14.874,14.873 15.619,14.595 16.364,14.595 C17.109,14.595 17.853,14.873 18.421,15.428 C18.970,15.965 19.273,16.681 19.273,17.442 C19.273,18.201 18.970,18.917 18.420,19.455 Z"/>
</svg>
